X:1
T:Title
%%score { ( 1 3 4 ) | ( 2 5 ) }
L:1/8
M:4/4
K:F
V:1 treble nm="Grand Piano"
V:3 treble 
V:4 treble 
V:2 bass 
V:5 bass 
V:1
 z4 z2[Q:1/4=100] C2 | F4 z4 | z2 D4 FG | A3 B/A/ GFED | C6 z2 | [EB]3 c [EB]A[EG]F | [CE]6 [DB]2 | %7
 A3 B AGFE | [CF]4- [CF]CFA | c2 B2 A2 GF | E6[K:bass] z2[K:treble] | B2 AG .F2 .F2 | %12
 [FA]4- [FA]ABc | dcBA GFED |[M:17/16] z/ z/ z B,-<B,[CEGBc]3/2AGF |[M:4/4] A2 GE F2 F2 | %16
 [CF]6 z2 |] %17
V:2
 z8 | A,2 A,2 [F,A,]2 E,2 | [B,D]2 z2 B,2 F,2 | A,2 D2 z4 | C,2 G,4 E,2 | G,2 z E z E z D | %6
 G,2 B,2 G,2 F,2 | z2 C2 z4 | F,,2 C,2 A,4 | [A,F]2 [DF]2 [A,F]2[K:bass] [E,C]2 | %10
 [G,B,]2 z2 z2 [G,B,]2 | [G,B,]2 E2- [F,E]2 z G | F,,2 C,A,- A,3 z | [B,D]8 | %14
[M:17/16] C,-<C,E,-<E,E,3/2 z/ z/ z/ z/ z |[M:4/4] [E,B,C]4 [F,A,C]2 [G,B,D]2 | [F,,F,]6 z2 |] %17
V:3
 x8 | z2 z G FEDE | F6 z2 | x8 | z2 B,4 C2 | x8 | x8 | C2 z2 z4 | x8 | x8 | %10
 z2[K:bass] C,B,- B,CE[K:treble]G | z4 z E3 | x8 | x8 | %14
[M:17/16] C/-C/-C/-C/-C-<C z/ z/ z/ z/ z/ z/ z/ z |[M:4/4] x8 | x8 |] %17
V:4
 x8 | z2 C2 z4 | x8 | x8 | x8 | x8 | x8 | x8 | x8 | x8 | x2[K:bass] x5[K:treble] x | x8 | x8 | x8 | %14
[M:17/16] x17/2 |[M:4/4] x8 | x8 |] %17
V:5
 x8 | F,4 z4 | x8 | x8 | x8 | z2 B,2 C2 E,2 | x8 | A,2 z D [C,C]2 [E,B,C]2 | x8 | x6[K:bass] x2 | %10
 x8 | z2 C2 z2 A,2 | x8 | x8 |[M:17/16] x17/2 |[M:4/4] x8 | x8 |] %17

